build/img/qr-code-icon.svg

<svg width="24" height="24" viewBox="0 0 24 24" fill="none" xmlns="http://www.w3.org/2000/svg">
<path d="M2 22.0002H11.09V12.9102H2V22.0002ZM3.82 14.7302H9.27V20.1702H3.82V14.7302Z" fill="#1A1A1A"/>
<path d="M7.45989 16.5508H5.63989V18.3708H7.45989V16.5508Z" fill="#1A1A1A"/>
<path d="M18.3701 20.1797H16.55V21.9997H18.3701V20.1797Z" fill="#1A1A1A"/>
<path d="M21.9999 20.1797H20.1799V21.9997H21.9999V20.1797Z" fill="#1A1A1A"/>
<path d="M20.1799 14.7302H18.3599V12.9102H12.9099V22.0002H14.7299V16.5502H16.5499V18.3602H21.9999V12.9102H20.1799V14.7302Z" fill="#1A1A1A"/>
<path d="M2 11.09H11.09V2H2V11.09ZM3.82 3.82H9.27V9.27H3.82V3.82Z" fill="#1A1A1A"/>
<path d="M7.45989 5.64062H5.63989V7.46063H7.45989V5.64062Z" fill="#1A1A1A"/>
<path d="M12.9099 2V11.09H21.9999V2H12.9099ZM20.1799 9.27H14.7299V3.82H20.1799V9.27Z" fill="#1A1A1A"/>
<path d="M18.3701 5.64062H16.55V7.46063H18.3701V5.64062Z" fill="#1A1A1A"/>
</svg>

<svg width="24" height="24" viewBox="0 0 24 24" fill="none" xmlns="http://www.w3.org/2000/svg"><path d="M2 22h9.09v-9.09H2V22zm1.82-7.27h5.45v5.44H3.82v-5.44z" fill="#1A1A1A"/><path d="M7.46 16.55H5.64v1.82h1.82v-1.82zm10.91 3.63h-1.82V22h1.82v-1.82zm3.63 0h-1.82V22H22v-1.82z" fill="#1A1A1A"/><path d="M20.18 14.73h-1.82v-1.82h-5.45V22h1.82v-5.45h1.82v1.81H22v-5.45h-1.82v1.82zM2 11.09h9.09V2H2v9.09zm1.82-7.27h5.45v5.45H3.82V3.82z" fill="#1A1A1A"/><path d="M7.46 5.64H5.64v1.82h1.82V5.64zM12.91 2v9.09H22V2h-9.09zm7.27 7.27h-5.45V3.82h5.45v5.45z" fill="#1A1A1A"/><path d="M18.37 5.64h-1.82v1.82h1.82V5.64z" fill="#1A1A1A"/></svg>
